X: 1
T: The Kerfunten
C: Hammy Hammilton
R: Jig
M: 6/8
L: 1/8
K: Gmaj
|:B3 BAG|d2d efg|d2d edB|A2 A DFA |
B3 BAG|d2d efg|d2d gdB|AGF G3 :|
|:g3 gab|e3 edB|g3 gab|bag a3|
g3 gab|e3 efg|d2d gdB|AGF G3:|
